svg/console.svg

<?xml version="1.0" encoding="UTF-8"?>
<svg xmlns="http://www.w3.org/2000/svg" xmlns:xlink="http://www.w3.org/1999/xlink" width="32" height="32" viewBox="0 0 32 32">
<path fill-rule="nonzero" fill="rgb(0%, 0%, 0%)" fill-opacity="1" d="M 1.820312 1.921875 C 0.816406 1.921875 0 2.734375 0 3.738281 L 0 6.398438 L 32 6.398438 L 32 3.738281 C 32 2.734375 31.183594 1.921875 30.179688 1.921875 Z M 0 7.679688 L 0 29.441406 C 0 29.796875 0.289062 30.078125 0.640625 30.078125 L 31.359375 30.078125 C 31.714844 30.078125 32 29.796875 32 29.441406 L 32 7.679688 Z M 9.660156 12.78125 C 9.828125 12.777344 9.988281 12.839844 10.101562 12.960938 L 14.339844 17.320312 L 10 21.558594 C 9.882812 21.675781 9.722656 21.738281 9.558594 21.738281 C 9.386719 21.734375 9.222656 21.664062 9.101562 21.539062 C 8.980469 21.417969 8.914062 21.257812 8.914062 21.089844 C 8.914062 20.921875 8.980469 20.757812 9.101562 20.640625 L 12.539062 17.300781 L 9.199219 13.859375 C 9.015625 13.675781 8.960938 13.402344 9.0625 13.164062 C 9.164062 12.925781 9.402344 12.773438 9.660156 12.78125 M 14.71875 20.480469 L 23.039062 20.480469 C 23.210938 20.480469 23.371094 20.546875 23.492188 20.667969 C 23.613281 20.789062 23.679688 20.949219 23.679688 21.121094 C 23.679688 21.289062 23.613281 21.453125 23.492188 21.574219 C 23.371094 21.695312 23.210938 21.761719 23.039062 21.757812 L 14.71875 21.757812 C 14.386719 21.734375 14.128906 21.453125 14.128906 21.121094 C 14.128906 20.785156 14.386719 20.507812 14.71875 20.480469 M 14.71875 20.480469 "/>
</svg>

<svg role="img" viewBox="0 0 32 32" xmlns="http://www.w3.org/2000/svg"><path d="M1.82 1.922C.816 1.922 0 2.734 0 3.738v2.66h32v-2.66a1.82 1.82 0 0 0-1.82-1.816ZM0 7.68v21.76c0 .356.29.637.64.637h30.72c.355 0 .64-.281.64-.637V7.68Zm9.66 5.101a.58.58 0 0 1 .442.18l4.238 4.36L10 21.558a.62.62 0 0 1-.441.18.66.66 0 0 1-.457-.2.633.633 0 0 1 0-.898l3.437-3.34-3.34-3.442a.63.63 0 0 1 .461-1.078m5.059 7.7h8.32a.635.635 0 0 1 .64.64.64.64 0 0 1-.187.453.62.62 0 0 1-.453.184h-8.32a.64.64 0 0 1-.59-.637c0-.336.258-.613.59-.64m0 0" fill="rgb(0%, 0%, 0%)"/></svg>
